T: Courthouse
M: 4/4
L: 1/8
K: Edor
|:EFGA B2AF|DEFG A2Fd|DEzc dEcE|1DEcd BAGF:|2DEFG E3z:||
|:g3a gfeg|f3g fedc|defg aABc|defg agfa|
g3a gfeg|f3g feb2|-bagb agfd|Bc(3dcB e3z:||
